alternatives/kde-colorscheme/48/places/folder-music-open.svg

<?xml version="1.0" encoding="UTF-8" standalone="no"?>
<!-- Created with Inkscape (http://www.inkscape.org/) -->

<svg
   width="48"
   height="48"
   viewBox="0 0 48 48"
   version="1.1"
   id="svg5"
   inkscape:version="1.2.2 (1:1.2.2+202305151914+b0a8486541)"
   sodipodi:docname="folder-music-open.svg"
   xmlns:inkscape="http://www.inkscape.org/namespaces/inkscape"
   xmlns:sodipodi="http://sodipodi.sourceforge.net/DTD/sodipodi-0.dtd"
   xmlns="http://www.w3.org/2000/svg"
   xmlns:svg="http://www.w3.org/2000/svg">
  <sodipodi:namedview
     id="namedview7"
     pagecolor="#ffffff"
     bordercolor="#000000"
     borderopacity="0.25"
     inkscape:showpageshadow="2"
     inkscape:pageopacity="0.0"
     inkscape:pagecheckerboard="0"
     inkscape:deskcolor="#d1d1d1"
     inkscape:document-units="px"
     showgrid="false"
     inkscape:zoom="16.791667"
     inkscape:cx="23.970223"
     inkscape:cy="24"
     inkscape:window-width="1920"
     inkscape:window-height="1008"
     inkscape:window-x="0"
     inkscape:window-y="0"
     inkscape:window-maximized="1"
     inkscape:current-layer="svg5" />
  <defs
     id="defs2">
    <style
       id="current-color-scheme"
       type="text/css">
         .ColorScheme-Text { color:#232629; }
         .ColorScheme-Highlight { color:#3daee9; }
     </style>
  </defs>
  <path
     d="M 6,7 C 4.3380015,7 3,8.338002 3,10 v 30 c 0,1.661998 1.3380015,3 3,3 h 36 c 1.661998,0 3,-1.338002 3,-3 V 15 c 0,-1.661998 -1.338002,-3 -3,-3 H 24 L 21,8.5 C 20.18215,7.581613 19.661998,7 18,7 Z"
     style="opacity:0.3;fill:#000000;stroke-width:1.5"
     id="path1016"
     sodipodi:nodetypes="ssssssssccss" />
  <path
     id="rect184"
     style="fill:currentColor;fill-opacity:1;stroke-width:2"
     class="ColorScheme-Highlight"
     d="M 6,6 C 4.3380016,6 3,7.338001 3,9 v 30 c 0,1.661998 1.3380016,3 3,3 h 36 c 1.661998,0 3,-1.338002 3,-3 V 14 c 0,-1.661998 -1.338002,-3 -3,-3 H 24 L 21,7.5 C 20.163517,6.423606 19.661998,6 18,6 Z"
     sodipodi:nodetypes="sccsssssccss" />
  <path
     id="path1511"
     style="opacity:0.4;fill:#000000;fill-opacity:1;stroke-width:1"
     d="M 6,6 C 4.338006,6 3,7.338004 3,9 v 13 c 0,-1.656849 1.343153,-3 3,-3 h 12 c 1.661992,0 1.999794,-0.579039 3,-1.5 L 24,14 h 18 c 1.661997,0 3,1.338003 3,3 v -3 c 0,-1.661997 -1.338003,-3 -3,-3 H 24 L 21,7.5 C 20.163519,6.423608 19.661995,6 18,6 Z" />
  <path
     id="path3081"
     style="opacity:0.2;fill:#ffffff;stroke-width:1.5"
     d="m 24,14 -3,3.5 C 19.999793,18.420963 19.661995,19 18,19 H 6 c -1.656849,0 -3,1.34315 -3,3 v 1 c 0,-1.65685 1.343151,-3 3,-3 h 12 c 1.661995,0 1.999793,-0.579037 3,-1.5 L 24,15 h 18 c 1.661992,0 3,1.338008 3,3 v -1 c 0,-1.661992 -1.338008,-3 -3,-3 z"
     sodipodi:nodetypes="ccssscssccscssc" />
  <path
     id="path290"
     style="opacity:0.6;fill:currentColor;stroke-linecap:round;stroke-linejoin:round"
     class="ColorScheme-Text"
     d="M 28.369141 22 L 20.994141 23.90625 C 20.440141 24.05469 19.994141 24.645211 19.994141 25.21875 L 19.994141 34.3125 C 19.432371 34.01834 18.71088 33.8994 17.962891 34.09375 C 16.613132 34.44446 15.767311 35.577901 16.056641 36.625 C 16.34597 37.672099 17.675632 38.25696 19.025391 37.90625 C 20.10222 37.62646 20.844511 36.834799 20.962891 36 L 20.994141 27.40625 L 27.994141 25.53125 L 27.994141 32.3125 C 27.432371 32.01834 26.71088 31.8994 25.962891 32.09375 C 24.613132 32.44446 23.767311 33.577901 24.056641 34.625 C 24.34597 35.672099 25.675632 36.25696 27.025391 35.90625 C 28.10222 35.62646 28.844511 34.834799 28.962891 34 L 28.994141 22.8125 C 28.994141 22.38234 28.7283 22.06051 28.369141 22 z " />
</svg>

<?xml version="1.0" encoding="UTF-8" standalone="no"?>
<!-- Created with Inkscape (http://www.inkscape.org/) -->

<svg
   width="48"
   height="48"
   viewBox="0 0 48 48"
   version="1.1"
   id="svg5"
   inkscape:version="1.2.2 (b0a8486541, 2022-12-01)"
   sodipodi:docname="folder-music-open.svg"
   xmlns:inkscape="http://www.inkscape.org/namespaces/inkscape"
   xmlns:sodipodi="http://sodipodi.sourceforge.net/DTD/sodipodi-0.dtd"
   xmlns="http://www.w3.org/2000/svg"
   xmlns:svg="http://www.w3.org/2000/svg">
  <sodipodi:namedview
     id="namedview7"
     pagecolor="#ffffff"
     bordercolor="#000000"
     borderopacity="0.25"
     inkscape:showpageshadow="2"
     inkscape:pageopacity="0.0"
     inkscape:pagecheckerboard="0"
     inkscape:deskcolor="#d1d1d1"
     inkscape:document-units="px"
     showgrid="false"
     inkscape:zoom="16.875"
     inkscape:cx="24.02963"
     inkscape:cy="24.088889"
     inkscape:window-width="1920"
     inkscape:window-height="1000"
     inkscape:window-x="0"
     inkscape:window-y="0"
     inkscape:window-maximized="1"
     inkscape:current-layer="svg5" />
  <defs
     id="defs2">
    <style
       id="current-color-scheme"
       type="text/css">
         .ColorScheme-Highlight { color:#3daee9; }
     </style>
  </defs>
  <path
     d="M 6,7 C 4.3380015,7 3,8.338002 3,10 v 30 c 0,1.661998 1.3380015,3 3,3 h 36 c 1.661998,0 3,-1.338002 3,-3 V 15 c 0,-1.661998 -1.338002,-3 -3,-3 H 24 L 21,8.5 C 20.18215,7.581613 19.661998,7 18,7 Z"
     style="opacity:0.3;fill:#000000;stroke-width:1.5"
     id="path1016"
     sodipodi:nodetypes="ssssssssccss" />
  <path
     id="rect184"
     style="fill:currentColor;fill-opacity:1;stroke-width:2"
     class="ColorScheme-Highlight"
     d="M 6,6 C 4.3380016,6 3,7.338001 3,9 v 30 c 0,1.661998 1.3380016,3 3,3 h 36 c 1.661998,0 3,-1.338002 3,-3 V 14 c 0,-1.661998 -1.338002,-3 -3,-3 H 24 L 21,7.5 C 20.163517,6.423606 19.661998,6 18,6 Z"
     sodipodi:nodetypes="sccsssssccss" />
  <path
     id="path1511"
     style="opacity:0.4;fill:#000000;fill-opacity:1;stroke-width:1"
     d="M 6,6 C 4.338006,6 3,7.338004 3,9 v 13 c 0,-1.656849 1.343153,-3 3,-3 h 12 c 1.661992,0 1.999794,-0.579039 3,-1.5 L 24,14 h 18 c 1.661997,0 3,1.338003 3,3 v -3 c 0,-1.661997 -1.338003,-3 -3,-3 H 24 L 21,7.5 C 20.163519,6.423608 19.661995,6 18,6 Z" />
  <path
     id="path3081"
     style="opacity:0.2;fill:#ffffff;stroke-width:1.5"
     d="m 24,14 -3,3.5 C 19.999793,18.420963 19.661995,19 18,19 H 6 c -1.656849,0 -3,1.34315 -3,3 v 1 c 0,-1.65685 1.343151,-3 3,-3 h 12 c 1.661995,0 1.999793,-0.579037 3,-1.5 L 24,15 h 18 c 1.661992,0 3,1.338008 3,3 v -1 c 0,-1.661992 -1.338008,-3 -3,-3 z"
     sodipodi:nodetypes="ccssscssccscssc" />
  <path
     d="m 28.36919,22 -7.375,1.90625 c -0.554,0.14844 -1,0.73896 -1,1.3125 v 9.09375 c -0.56177,-0.29416 -1.28326,-0.4131 -2.03125,-0.21875 -1.34976,0.35071 -2.19558,1.48415 -1.90625,2.53125 0.28933,1.0471 1.61899,1.63196 2.96875,1.28125 C 20.10227,37.62646 20.84456,36.8348 20.96294,36 l 0.0312,-8.59375 7,-1.875 v 6.78125 c -0.56177,-0.29416 -1.28326,-0.4131 -2.03125,-0.21875 -1.34976,0.35071 -2.19558,1.48415 -1.90625,2.53125 0.28933,1.0471 1.61899,1.63196 2.96875,1.28125 C 28.10222,35.62646 28.84451,34.8348 28.96289,34 l 0.0312,-11.1875 c 0,-0.43016 -0.26584,-0.75199 -0.625,-0.8125 z"
     style="color:#000000;clip-rule:nonzero;display:inline;overflow:visible;visibility:visible;opacity:0.6;isolation:auto;mix-blend-mode:normal;color-interpolation:sRGB;color-interpolation-filters:linearRGB;solid-color:#000000;solid-opacity:1;fill:#ffffff;fill-opacity:1;fill-rule:nonzero;stroke:none;stroke-width:1;stroke-linecap:butt;stroke-linejoin:miter;stroke-miterlimit:4;stroke-dasharray:none;stroke-dashoffset:0;stroke-opacity:1;marker:none;color-rendering:auto;image-rendering:auto;shape-rendering:auto;text-rendering:auto;enable-background:accumulate"
     id="path10324" />
</svg>
